sock <- carabiner tidal 2 (2) -- 100bpm

  d1 
  $ qtrigger 1
  $ slow (16/16)
  -- $ every 12 (degradeBy 0.9)
  -- $ n "[0@1 -12@1 0@1 -2@2   0@1 +3@1  -12@2 ]*0.888" 
  $ n "[0~~~~  ~~~~]" 
  -- # legato "[1]"
  # cut 0
  -- # amp "[1]*0888"
  # lpf 777
  -- # octave 4 
  # s "z" 
  # gain 1 
  # cps (100/120)

